X: 1001
M: 2/4
L: 1/16
K: Bb
d2ed c2B2 | FFFF "^>"d4 | cccc "^>"f4 | dddd "^>"b4 |\
d2ed c2B2 | FFFF "^>"d4 | cccc f2A2 | B6 :|
K: F
|: c2 |\
(3e2e2e2 (3e2e2e2 | f2e2f2 ^f2 | (3g2g2g2 (3^f2f2f2 | g2^f2g2 AB |\
d2c2 GGGG | B2A2 F4 | f2e2 d2e2 | f2c2 d2c2 |\
d2c2 GGGG | B2A2 F4 | f2e2 d2e2 | f6 :|
K: Bb
d2ed c2B2 | FFFF "^>"d4 | cccc "^>"f4 | dddd "^>"b4 |\
d2ed c2B2 | FFFF "^>"d4 | cde=e f^fga | b6 H|]
[K:Eb] |: BB |\
|: gg |\
g8 | g2gg g2gg | f8 | f2ff b2 BB |\

